X:180
T:The Road to Newbridge
B:Terry "Cuz" Teahan "Sliabh Luachra on Parade" 1980
Z:Patrick Cavanagh
M:4/4
L:1/8
R:Reel
K:G
dB | G2GF GABd | dced dBAc | BGED E2EG | FGAF GFED | 
G2GF GABd | dBed dBAc | BGED E2ED | GBAB G2 :| 
B/c/d | gdBd GdBd | fgaf gedA | BGED E2EG | FGAF GAB/c/d | 
gdBd GdBd | fgaf fged | BGED E2ED | GBAB G2 :|| 

